X: 1

T: White Lightning, My Ass!

M: 6/8

L: 1/8

R: jig

C: B.Black

N: Refers to an actual beast of burden named White Lightning

N: (details on request)

K: A

E | Afe cBA | BAB cAF | EFA BAB | cdc B2 E |

Afe cBA | BAB cAF | EGB dcB | cAA A2 :|

B | ecA ecA | fdB fdB | gfg gab | aga gfe |

ecA ecA | dBF dBF | EGB dcB | cAA A2 :|

                       


WHITE LIME.  See note for “White Joak/Joke.”

 

WHITE MAN. AKA – “Bell Cow.” Old‑Time, Breakdown. USA, Missouri. D Major. Standard tuning. AABB. “White Man” is one of the ‘100 essential Missouri fiddle tunes’ according to Missouri fiddler Charlie Walden. Source for notated version: Bill Katon (Tebbetts, Missouri) [Christeson]. R.P. Christeson (Old Time Fiddlers Repertory, vol. 2), 1984; pg. 60.

